highlights/10.svg

<svg viewBox="0 0 99 93" fill="none" xmlns="http://www.w3.org/2000/svg" preserveAspectRatio="none">
<path fill-rule="evenodd" clip-rule="evenodd" d="M52.075 2.18976C52.4807 1.9527 52.2155 3.42229 52.292 4.0253C51.9849 3.99193 52.0945 2.92857 52.075 2.18976ZM12.4411 15.3848C14.9007 17.1409 17.7795 15.7047 20.5531 17.2157C20.8733 17.7232 20.3818 18.6116 20.7682 18.7946C23.2256 18.3596 25.4241 19.4505 27.715 19.4908C44.3689 19.7417 63.9893 23.3725 82.3571 22.0721C82.8376 21.7406 82.5961 23.2378 83.1075 22.8385C84.6478 21.415 86.7302 21.0973 88.1344 22.6083C88.9899 19.8372 90.2452 18.0891 90.5809 14.5735C90.8529 11.7287 90.0784 8.49729 90.2497 5.34641C89.1305 4.3924 87.3444 5.09667 86.0762 4.48674C85.9202 4.0598 86.1068 2.19667 85.543 2.13683C81.5385 0.00210439 77.2707 1.19431 73.0293 1.37038C60.0005 1.91816 46.9273 -0.424865 34.5477 0.0688257C31.0302 0.211524 27.8597 0.0561782 24.6122 1.05852C23.6666 1.35658 22.8569 2.56263 21.9377 3.20592C19.5701 4.89989 16.9107 4.56154 14.7867 6.95174C14.4246 7.10134 14.5892 8.56518 14.1502 8.53065C13.5843 9.34312 12.4761 8.78841 12.2283 10.3731C13.1388 11.6458 14.3872 12.0877 15.2146 13.5504C12.7922 13.2512 10.6748 12.3582 8.3906 12.6827C9.30558 13.8082 10.3587 12.96 11.3747 13.7944C11.7366 14.0924 12.0594 15.1144 12.4411 15.3848ZM4.42353 37.8828C4.59464 39.2845 4.99176 39.5365 5.17397 39.7805C5.62592 40.3616 4.90184 38.5192 4.42353 37.8828ZM0 29.0424L0.201764 30.1207C0.618698 30.4521 0.515565 29.3808 0.936845 29.6857C1.36472 30.5937 0.307127 27.322 0 29.0424ZM94.3967 73.2571C90.9342 73.8198 87.0745 74.7071 83.3839 74.5587C83.748 73.7117 84.0598 73.1351 83.803 71.3744C82.7497 70.0798 80.8891 70.7841 79.9523 69.1799C83.1688 69.0855 86.6444 68.8404 89.5781 68.204C90.3703 68.0348 91.3247 67.899 91.9303 66.7758C90.8332 65.8402 90.0982 63.9771 89.8876 60.8066C89.4793 59.8032 88.7684 59.5661 88.4963 58.2197C87.5814 58.0493 86.7519 56.688 85.8194 56.2345C85.4223 56.0516 84.7683 56.8709 84.5358 55.5084C85.271 55.5832 85.7997 55.6983 86.6752 55.1436C85.3477 48.2745 79.5704 49.7234 76.7178 46.6081C78.5346 46.1743 79.5814 47.6922 81.2116 47.7325C81.5473 47.6715 81.3455 46.3101 81.7405 46.3906C85.1698 45.1109 89.5188 46.8107 92.2221 44.5885C92.3624 41.1546 94.4952 42.5297 95.4278 40.9991C94.6028 40.2465 93.4333 40.3754 92.8561 39.0083C93.3039 38.3098 93.7604 39.2638 94.1399 38.6884C92.7707 37.4973 89.8502 38.9392 89.4333 36.2636C89.9729 35.3085 90.4953 34.2866 91.3554 34.076C91.3444 32.504 90.1616 33.9068 89.8568 33.0794C90.5151 32.1185 91.2612 31.3797 91.779 30.0931C91.4411 30.2358 91.3444 29.7801 91.2413 29.3198C91.4716 29.0965 91.4125 28.1609 91.5617 27.7213C92.3781 27.5245 93.091 28.1609 93.4881 27.6339C91.9303 27.2886 89.9774 26.6384 88.4568 27.078C88.6588 26.0009 88.7047 25.7972 88.8803 24.422C86.8069 22.9582 83.8492 23.6371 81.1809 23.4541C76.571 23.1423 71.7919 24.1987 67.0655 23.7856C54.8264 22.7361 41.1148 21.0018 29.0006 20.5208C27.6074 20.4667 26.2842 21.1514 24.9369 21.3885C21.152 22.0375 16.95 19.9246 13.297 20.141C13.2463 21.6382 13.2901 22.3287 13.8255 23.0479L13.297 23.5761C13.6018 24.1377 14.2974 23.7315 14.3632 24.8972C12.1887 26.8076 9.99447 21.4552 7.95837 23.766C8.474 24.0905 8.91708 24.5842 9.23975 25.3783L8.38394 25.6211C8.75705 25.8651 9.48784 26.2851 9.23523 27.2138C8.96762 27.9872 8.5419 28.1344 8.27873 28.2507L8.70201 29.0562C8.00226 29.2392 7.31329 29.0631 6.67471 28.4739C6.13933 31.3521 4.14697 27.4981 3.1618 29.1034C3.34606 29.5983 4.20401 29.3543 3.90567 30.2151C3.04986 30.9999 2.04496 29.9987 1.35591 30.268C1.64562 30.5315 2.35653 30.8238 1.88258 31.3728C2.86559 31.4947 3.18161 33.1749 3.68402 34.4212C3.49968 34.2521 2.96438 33.4661 3.25614 34.3879C3.31318 35.3166 4.44325 35.9242 5.17397 36.0807C5.54258 36.9139 5.89359 37.5514 6.34777 37.9715C8.5419 40.0107 11.9429 40.1384 14.8963 40.4767C19.6227 41.0119 24.5179 42.0418 28.9019 42.4285C30.1834 42.5436 31.2169 43.3974 32.2218 43.6747C34.1811 44.2363 35.6886 44.455 37.4614 44.6023C44.9745 45.2467 53.3519 46.3906 61.2117 46.9879C63.4628 47.1502 66.0079 46.7831 68.483 46.9603C70.7937 47.1226 73.486 45.958 75.1118 46.9407C68.8077 47.6991 62.4953 48.431 56.2878 47.9557C45.2268 47.1226 34.8746 44.2179 24.303 43.0384C18.1262 42.3329 11.9715 42.1983 6.24026 38.4997L5.5974 40.0578C5.91776 42.0015 6.51896 43.249 7.09162 44.5966L7.40977 46.9741C5.14974 46.8659 3.04115 44.9222 1.53591 43.7634C2.40256 44.6426 2.20951 45.3411 2.3807 47.2652L1.95719 47.218C2.23153 48.1387 3.32862 49.8799 2.37626 49.9063C3.1618 50.2389 2.38728 51.4104 2.47718 52.5428C2.13059 52.7384 1.55135 52.1296 1.51174 52.4611L2.15469 54.1079C1.9221 54.9065 1.47006 53.2942 1.29024 54.0319C1.66091 54.5613 2.29507 54.4796 2.36089 55.7052C2.11515 55.78 1.95283 55.6373 1.82775 55.4002C2.02967 57.3715 2.25118 59.3026 2.57154 61.0092C3.0543 61.2325 2.40256 60.2715 2.88977 60.4948L3.10476 62.0933C2.66367 62.3441 2.06469 61.5995 1.92209 62.0127C2.37626 62.8654 3.22549 62.7722 3.42291 64.228L2.88532 64.2004C3.24299 64.3154 3.33299 65.3189 2.77783 64.9852L3.41854 66.876C3.14199 67.4721 2.89856 66.4962 2.77338 67.3443L3.20134 68.7045C2.94902 69.036 2.59135 69.1119 2.33682 69.4307C2.94023 69.7552 3.11576 70.8255 3.19689 71.0833C3.35272 71.9291 3.85521 71.9786 4.27428 72.2007C4.88205 74.5184 5.57102 76.6382 6.74275 77.5853C6.60452 79.3069 7.32866 78.9616 7.38775 80.2424C12.0372 84.6719 17.3056 85.3831 22.7163 86.0873C36.3448 87.8492 49.9092 91.8724 64.0355 92.7999C67.454 93.0312 71.4233 93.1532 74.4161 92.6457C76.0773 92.3672 77.2247 90.6594 78.6906 90.6122C80.0245 90.58 81.352 92.2717 82.6511 91.2291C83.002 88.2957 83.5573 85.871 83.6057 82.2068C83.4718 80.0928 82.3833 79.7614 82.3132 77.7832C82.1463 73.0338 85.9005 75.4862 87.9829 74.8901C91.5834 73.8267 96.1016 73.7117 99 73.2917C97.7581 72.0108 95.9961 72.9936 94.3967 73.2571V73.2571ZM4.00225 37.0692L3.469 37.0427L4.00225 37.0692Z" fill="#100F0D"/>
</svg>

<svg viewBox="0 0 99 93" fill="none" xmlns="http://www.w3.org/2000/svg" preserveAspectRatio="none"><path fill-rule="evenodd" clip-rule="evenodd" d="M52.075 2.19c.406-.237.14 1.232.217 1.835-.307-.033-.198-1.096-.217-1.835ZM12.441 15.385c2.46 1.756 5.338.32 8.112 1.83.32.508-.171 1.397.215 1.58 2.458-.435 4.656.655 6.947.696 16.654.25 36.274 3.881 54.642 2.581.48-.331.24 1.166.75.767 1.54-1.424 3.623-1.742 5.027-.23.856-2.772 2.111-4.52 2.447-8.036.272-2.844-.503-6.076-.331-9.227-1.12-.954-2.906-.25-4.174-.86-.156-.426.03-2.29-.533-2.35-4.005-2.134-8.272-.942-12.514-.766C60.001 1.918 46.927-.425 34.548.07c-3.518.143-6.688-.013-9.936.99-.945.298-1.755 1.504-2.674 2.147C19.57 4.9 16.91 4.562 14.787 6.952c-.362.15-.198 1.613-.637 1.579-.566.812-1.674.257-1.922 1.842.91 1.273 2.16 1.715 2.987 3.177-2.423-.299-4.54-1.192-6.824-.867.915 1.125 1.968.277 2.984 1.111.362.298.684 1.32 1.066 1.59ZM4.424 37.883c.17 1.401.568 1.653.75 1.898.452.58-.272-1.262-.75-1.898ZM0 29.043l.202 1.078c.417.331.314-.74.735-.435.428.908-.63-2.364-.937-.644Zm94.397 44.214c-3.463.563-7.323 1.45-11.013 1.302.364-.847.676-1.424.419-3.185-1.053-1.294-2.914-.59-3.85-2.194 3.216-.095 6.691-.34 9.625-.976.792-.17 1.747-.305 2.352-1.428-1.097-.936-1.832-2.799-2.042-5.97-.409-1.003-1.12-1.24-1.392-2.586-.915-.17-1.744-1.532-2.677-1.986-.397-.182-1.05.637-1.283-.726.735.075 1.264.19 2.14-.364-1.328-6.87-7.106-5.42-9.958-8.536 1.817-.434 2.863 1.084 4.494 1.125.335-.061.133-1.423.528-1.342 3.43-1.28 7.779.42 10.482-1.802.14-3.434 2.273-2.06 3.206-3.59-.825-.753-1.995-.624-2.572-1.99.448-.7.904.255 1.284-.32-1.37-1.192-4.29.25-4.707-2.425.54-.956 1.062-1.977 1.922-2.188-.01-1.572-1.193-.17-1.498-.997.658-.96 1.404-1.7 1.922-2.986-.338.143-.435-.313-.538-.773.23-.224.171-1.16.32-1.599.817-.197 1.53.44 1.927-.087-1.558-.345-3.51-.996-5.031-.556.202-1.077.248-1.28.423-2.656-2.073-1.464-5.03-.785-7.7-.968-4.609-.312-9.388.745-14.115.332-12.239-1.05-25.95-2.784-38.064-3.265-1.394-.054-2.717.63-4.064.867-3.785.65-7.987-1.463-11.64-1.247-.05 1.497-.007 2.188.528 2.907l-.528.528c.305.562 1 .155 1.066 1.321-2.174 1.91-4.369-3.442-6.405-1.131.516.325.96.818 1.282 1.612l-.856.243c.373.244 1.104.664.851 1.593-.267.773-.693.92-.956 1.037l.423.805c-.7.183-1.389.007-2.027-.582-.536 2.878-2.528-.976-3.513.63.184.494 1.042.25.744 1.111-.856.785-1.861-.216-2.55.053.29.264 1 .556.527 1.105.983.122 1.299 1.802 1.801 3.048-.184-.169-.72-.955-.428-.033.057.929 1.187 1.536 1.918 1.693.369.833.72 1.47 1.174 1.89 2.194 2.04 5.595 2.167 8.548 2.506 4.727.535 9.622 1.565 14.006 1.952 1.281.115 2.315.968 3.32 1.246 1.96.561 3.467.78 5.24.927 7.512.645 15.89 1.789 23.75 2.386 2.25.162 4.796-.205 7.271-.028 2.31.163 5.003-1.002 6.629-.02-6.304.76-12.617 1.491-18.824 1.016-11.061-.833-21.413-3.738-31.985-4.918-6.177-.705-12.332-.84-18.063-4.538l-.643 1.558c.32 1.944.922 3.191 1.495 4.539l.318 2.377c-2.26-.108-4.369-2.052-5.874-3.21.867.879.674 1.577.845 3.501l-.424-.047c.275.92 1.372 2.662.42 2.688.785.333.01 1.504.1 2.637-.346.195-.926-.413-.965-.082l.643 1.647c-.233.799-.685-.814-.865-.076.37.53 1.005.448 1.07 1.673-.245.075-.407-.068-.532-.305.202 1.971.423 3.903.744 5.61.482.223-.17-.738.318-.515l.215 1.598c-.441.251-1.04-.494-1.183-.08.454.852 1.303.76 1.5 2.215l-.537-.028c.358.115.448 1.119-.107.785l.64 1.891c-.276.596-.52-.38-.645.468l.428 1.36c-.252.332-.61.408-.864.727.603.324.779 1.395.86 1.652.156.846.658.896 1.077 1.118.608 2.317 1.297 4.437 2.469 5.384-.138 1.722.586 1.377.645 2.657 4.65 4.43 9.918 5.141 15.328 5.845 13.629 1.762 27.193 5.785 41.32 6.713 3.418.231 7.387.353 10.38-.154 1.661-.279 2.809-1.987 4.275-2.034 1.334-.032 2.661 1.66 3.96.617.351-2.933.906-5.358.955-9.022-.134-2.114-1.223-2.446-1.293-4.424-.167-4.75 3.587-2.297 5.67-2.893 3.6-1.063 8.119-1.178 11.017-1.598-1.242-1.281-3.004-.298-4.603-.035ZM4.002 37.07l-.533-.026.533.026Z" fill="#100F0D"/></svg>
